src/assets/filled/Wallet3.svg

<svg width="24" height="24" viewBox="0 0 24 24"  xmlns="http://www.w3.org/2000/svg">
<path d="M22 12.62V14.68C22 15.24 21.54 15.7 20.97 15.7H19.04C17.96 15.7 16.97 14.91 16.88 13.83C16.82 13.2 17.06 12.61 17.48 12.2C17.85 11.82 18.36 11.6 18.92 11.6H20.97C21.54 11.6 22 12.06 22 12.62Z" />
<path d="M15.38 13.96C15.29 12.91 15.67 11.88 16.43 11.13C17.07 10.48 17.96 10.1 18.92 10.1H19.49C19.77 10.1 20 9.87002 19.96 9.59002C19.69 7.65002 18.01 6.15002 16 6.15002H6C3.79 6.15002 2 7.94002 2 10.15V17.15C2 19.36 3.79 21.15 6 21.15H16C18.02 21.15 19.69 19.65 19.96 17.71C20 17.43 19.77 17.2 19.49 17.2H19.04C17.14 17.2 15.54 15.78 15.38 13.96ZM13 11.9H7C6.59 11.9 6.25 11.57 6.25 11.15C6.25 10.73 6.59 10.4 7 10.4H13C13.41 10.4 13.75 10.74 13.75 11.15C13.75 11.56 13.41 11.9 13 11.9Z" />
<path d="M14.2099 3.97998C14.4699 4.24998 14.2399 4.64998 13.8599 4.64998H6.02991C4.93991 4.64998 3.91991 4.96998 3.06991 5.51998C2.67991 5.76998 2.14991 5.49998 2.33991 5.06998C2.89991 3.75998 4.20991 2.84998 5.71991 2.84998H11.3399C12.4999 2.84998 13.5299 3.25998 14.2099 3.97998Z" />
</svg>

<?xml version="1.0" encoding="UTF-8"?>
<svg width="24" height="24" viewBox="0 0 24 24" xmlns="http://www.w3.org/2000/svg">
 <path d="m22 12.62v2.06c0 0.56-0.46 1.02-1.03 1.02h-1.93c-1.08 0-2.07-0.79-2.16-1.87-0.06-0.63 0.18-1.22 0.6-1.63 0.37-0.38 0.88-0.6 1.44-0.6h2.05c0.57 0 1.03 0.46 1.03 1.02z"/>
 <path d="m15.38 13.96c-0.09-1.05 0.29-2.08 1.05-2.83 0.64-0.65 1.53-1.03 2.49-1.03h0.57c0.28 0 0.51-0.22998 0.47-0.50998-0.27-1.94-1.95-3.44-3.96-3.44h-10c-2.21 0-4 1.79-4 4v7c0 2.21 1.79 4 4 4h10c2.02 0 3.69-1.5 3.96-3.44 0.04-0.28-0.19-0.51-0.47-0.51h-0.45c-1.9 0-3.5-1.42-3.66-3.24zm-2.38-2.06h-6c-0.41 0-0.75-0.33-0.75-0.75s0.34-0.75 0.75-0.75h6c0.41 0 0.75 0.34 0.75 0.75s-0.34 0.75-0.75 0.75z"/>
 <path d="m14.21 3.98c0.26 0.27 0.03 0.67-0.35 0.67h-7.83c-1.09 0-2.11 0.32-2.96 0.87-0.39 0.25-0.92-0.02-0.73-0.45 0.56-1.31 1.87-2.22 3.38-2.22h5.62c1.16 0 2.19 0.41 2.87 1.13z"/>
</svg>
